apps/rewards/public/meta/icon.svg

<svg width="160" height="160" viewBox="0 0 160 160" fill="none" xmlns="http://www.w3.org/2000/svg">
<rect width="160" height="160" fill="url(#paint0_linear)"/>
<g clip-path="url(#clip0)">
<path d="M57.6576 87.5774C60.6552 87.5774 63.5527 87.3838 66.2945 87.0234V56.9705C63.553 56.6104 60.6552 56.4167 57.6576 56.4167C40.5419 56.4167 26.6667 62.7097 26.6667 70.4728V73.5211C26.6667 81.2839 40.5419 87.5774 57.6576 87.5774Z" fill="white"/>
<path opacity="0.8" d="M57.6576 103.27C60.6552 103.27 63.5527 103.077 66.2945 102.717V93.9076C63.5522 94.2677 60.656 94.464 57.6576 94.464C42.7174 94.464 30.2476 89.6688 27.3185 83.2869C26.892 84.2165 26.6667 85.179 26.6667 86.1658V89.2141C26.6667 96.9772 40.5419 103.27 57.6576 103.27Z" fill="white"/>
<path opacity="0.7" d="M66.2945 110.285V109.6C63.5522 109.96 60.656 110.157 57.6576 110.157C42.7174 110.157 30.2476 105.361 27.3185 98.9794C26.892 99.9087 26.6667 100.871 26.6667 101.858V104.906C26.6667 112.67 40.5419 118.963 57.6576 118.963C61.0805 118.963 64.3726 118.71 67.4512 118.246C66.6882 116.685 66.2945 115.038 66.2945 113.333V110.285Z" fill="white"/>
<path d="M102.342 32.6106C85.2262 32.6106 71.3511 38.9036 71.3511 46.6666V49.715C71.3511 57.4781 85.2262 63.771 102.342 63.771C119.457 63.771 133.333 57.4781 133.333 49.715V46.6666C133.333 38.9036 119.457 32.6106 102.342 32.6106Z" fill="white"/>
<path opacity="0.8" d="M102.342 70.6579C87.4018 70.6579 74.9319 65.8629 72.0029 59.4807C71.5763 60.4101 71.3511 61.3726 71.3511 62.3596V65.4079C71.3511 73.171 85.2262 79.464 102.342 79.464C119.457 79.464 133.333 73.171 133.333 65.4079V62.3596C133.333 61.3726 133.108 60.4101 132.681 59.4807C129.752 65.8629 117.282 70.6579 102.342 70.6579Z" fill="white"/>
<path opacity="0.7" d="M102.342 86.3505C87.4018 86.3505 74.9319 81.5553 72.0029 75.1733C71.5763 76.1027 71.3511 77.0652 71.3511 78.0522V81.1006C71.3511 88.8639 85.2262 95.1569 102.342 95.1569C119.457 95.1569 133.333 88.8639 133.333 81.1006V78.0522C133.333 77.0652 133.108 76.1027 132.681 75.1733C129.752 81.5555 117.282 86.3505 102.342 86.3505Z" fill="white"/>
<path opacity="0.6" d="M102.342 102.891C87.4018 102.891 74.9319 98.0957 72.0029 91.7137C71.5763 92.6434 71.3511 93.6056 71.3511 94.5924V97.641C71.3511 105.404 85.2262 111.697 102.342 111.697C119.457 111.697 133.333 105.404 133.333 97.641V94.5924C133.333 93.6056 133.108 92.6428 132.681 91.7137C129.752 98.0954 117.282 102.891 102.342 102.891Z" fill="white"/>
<path opacity="0.4" d="M102.342 118.583C87.4018 118.583 74.9319 113.788 72.0029 107.407C71.5763 108.336 71.3511 109.299 71.3511 110.285V113.333C71.3511 121.097 85.2262 127.39 102.342 127.39C119.457 127.39 133.333 121.097 133.333 113.333V110.285C133.333 109.298 133.108 108.335 132.681 107.406C129.752 113.788 117.282 118.583 102.342 118.583Z" fill="white"/>
</g>
<defs>
<linearGradient id="paint0_linear" x1="160" y1="160" x2="0" y2="0" gradientUnits="userSpaceOnUse">
<stop stop-color="#469F1B"/>
<stop offset="1" stop-color="#60FFCF"/>
</linearGradient>
<clipPath id="clip0">
<rect width="106.667" height="106.667" fill="white" transform="translate(26.6667 26.6666)"/>
</clipPath>
</defs>
</svg>

<svg xmlns="http://www.w3.org/2000/svg" width="56" height="56" fill="none" viewBox="0 0 160 160"><defs/><path fill="url(#prefix__paint0_linear)" d="M0 0h160v160H0z"/><g fill="#fff" clip-path="url(#prefix__clip0)"><path d="M57.658 87.577a66.44 66.44 0 008.636-.554V56.971a66.49 66.49 0 00-8.636-.554c-17.116 0-30.991 6.293-30.991 14.056v3.048c0 7.763 13.875 14.056 30.99 14.056z"/><path d="M57.658 103.27c2.997 0 5.895-.193 8.636-.553v-8.81c-2.742.36-5.638.557-8.636.557-14.94 0-27.41-4.795-30.34-11.177a6.856 6.856 0 00-.651 2.879v3.048c0 7.763 13.875 14.056 30.99 14.056z" opacity=".8"/><path d="M66.294 110.285v-.685c-2.742.36-5.638.557-8.636.557-14.94 0-27.41-4.796-30.34-11.178a6.853 6.853 0 00-.651 2.879v3.048c0 7.764 13.875 14.057 30.99 14.057 3.424 0 6.716-.253 9.794-.717a11.093 11.093 0 01-1.156-4.913v-3.048z" opacity=".7"/><path d="M102.342 32.61c-17.116 0-30.99 6.294-30.99 14.057v3.048c0 7.763 13.874 14.056 30.99 14.056 17.115 0 30.991-6.293 30.991-14.056v-3.048c0-7.763-13.876-14.056-30.991-14.056z"/><path d="M102.342 70.658c-14.94 0-27.41-4.795-30.34-11.177a6.853 6.853 0 00-.65 2.879v3.048c0 7.763 13.874 14.056 30.99 14.056 17.115 0 30.991-6.293 30.991-14.056V62.36c0-.987-.225-1.95-.652-2.88-2.929 6.383-15.399 11.178-30.339 11.178z" opacity=".8"/><path d="M102.342 86.35c-14.94 0-27.41-4.795-30.34-11.177a6.853 6.853 0 00-.65 2.88V81.1c0 7.763 13.874 14.056 30.99 14.056 17.115 0 30.991-6.293 30.991-14.056v-3.049c0-.987-.225-1.95-.652-2.879-2.929 6.382-15.399 11.177-30.339 11.177z" opacity=".7"/><path d="M102.342 102.891c-14.94 0-27.41-4.795-30.34-11.177a6.854 6.854 0 00-.65 2.878v3.049c0 7.763 13.874 14.056 30.99 14.056 17.115 0 30.991-6.293 30.991-14.056v-3.049c0-.986-.225-1.95-.652-2.878-2.929 6.381-15.399 11.177-30.339 11.177z" opacity=".6"/><path d="M102.342 118.583c-14.94 0-27.41-4.795-30.34-11.176a6.851 6.851 0 00-.65 2.878v3.048c0 7.764 13.874 14.057 30.99 14.057 17.115 0 30.991-6.293 30.991-14.057v-3.048c0-.987-.225-1.95-.652-2.879-2.929 6.382-15.399 11.177-30.339 11.177z" opacity=".4"/></g><defs><linearGradient id="prefix__paint0_linear" x1="160" x2="0" y1="160" y2="0" gradientUnits="userSpaceOnUse"><stop stop-color="#469F1B"/><stop offset="1" stop-color="#60FFCF"/></linearGradient><clipPath id="prefix__clip0"><path fill="#fff" d="M0 0h106.667v106.667H0z" transform="translate(26.667 26.667)"/></clipPath></defs></svg>
